src/icons/svg/appwrite.svg

<svg width="18" height="17" viewBox="0 0 18 17" fill="none" xmlns="http://www.w3.org/2000/svg">
<g id="appwrite">
<path id="Vector" d="M18 12.2017V16.2689H7.91783C4.98048 16.2689 2.41575 14.6331 1.04357 12.2017C0.844087 11.8482 0.669498 11.4773 0.523046 11.0924C0.235551 10.3381 0.0548296 9.52877 0 8.68426V7.58463C0.0119038 7.39643 0.0306613 7.20971 0.0551903 7.02521C0.105331 6.64658 0.181082 6.2761 0.280641 5.91596C1.22248 2.50171 4.28501 0 7.91783 0C11.5506 0 14.6128 2.50171 15.5547 5.91596H11.2437C10.5359 4.80302 9.31093 4.06723 7.91783 4.06723C6.52472 4.06723 5.29971 4.80302 4.59198 5.91596C4.37627 6.25428 4.20889 6.62736 4.09923 7.02521C4.00184 7.37794 3.9499 7.74991 3.9499 8.13445C3.9499 9.30026 4.42821 10.3511 5.19511 11.0924C5.90573 11.7805 6.8638 12.2017 7.91783 12.2017H18Z" fill="#414146"/>
<path id="Vector_2" d="M18.0001 7.02527V11.0925H10.6406C11.4075 10.3512 11.8858 9.30033 11.8858 8.13451C11.8858 7.74997 11.8339 7.37801 11.7365 7.02527H18.0001Z" fill="#414146"/>
</g>
</svg>

<svg xmlns="http://www.w3.org/2000/svg" width="18" height="17" fill="none"><g fill="#414146"><path d="M18 12.202v4.067H7.918c-2.938 0-5.502-1.636-6.874-4.067A8.26 8.26 0 0 1 0 8.685v-1.1a8 8 0 0 1 .28-1.669C1.223 2.502 4.286 0 7.919 0s6.695 2.502 7.637 5.916h-4.311c-.708-1.113-1.933-1.849-3.326-1.849S5.3 4.803 4.592 5.916a4 4 0 0 0-.493 1.11c-.097.352-.15.724-.15 1.108 0 1.166.48 2.217 1.246 2.958a3.9 3.9 0 0 0 2.723 1.11z"/><path d="M18 7.025v4.067h-7.36a4.1 4.1 0 0 0 1.246-2.957q-.002-.579-.15-1.11z"/></g></svg>
